assets/img/svg/designers.svg

<?xml version="1.0" encoding="UTF-8"?>
<svg width="70px" height="70px" viewBox="0 0 70 70" version="1.1" xmlns="http://www.w3.org/2000/svg" xmlns:xlink="http://www.w3.org/1999/xlink">
    <!-- Generator: Sketch 42 (36781) - http://www.bohemiancoding.com/sketch -->
    <title>Page 1</title>
    <desc>Created with Sketch.</desc>
    <defs>
        <polygon id="path-1" points="0 69.5263596 69.5257303 69.5263596 69.5257303 -0.000157303371 0 -0.000157303371"></polygon>
    </defs>
    <g id="Desktop" stroke="none" stroke-width="1" fill="none" fill-rule="evenodd">
        <g id="d-01-01-home" transform="translate(-874.000000, -1738.000000)">
            <g id="Group-8" transform="translate(130.000000, 1679.000000)">
                <g id="Group-3" transform="translate(687.000000, 59.000000)">
                    <g id="Page-1" transform="translate(57.000000, 0.000000)">
                        <path d="M34.214191,27.3654382 L42.7148652,18.8639775 L50.7916067,27.8389213 L51.0204831,27.5400449 C52.4330674,25.6940899 53.1794719,23.4965618 53.1794719,21.1857753 C53.1794719,15.3985843 48.4705955,10.6897079 42.6834045,10.6897079 C36.8962135,10.6897079 32.1873371,15.3985843 32.1873371,21.1857753 C32.1873371,23.271618 32.8149775,25.3000449 34.0018315,27.0524045 L34.214191,27.3654382 Z M62.2314944,42.9990337 L42.6511573,21.2439775 L35.0628427,28.8330787 L43.0664382,37.3707191 L41.8717191,38.4899326 L25.7237416,21.264427 L6.1622809,42.9990337 L4.94553933,41.9034157 L25.698573,18.8435281 L30.9540787,24.4482472 L30.7574494,23.3966742 C30.619809,22.6604944 30.549809,21.9164494 30.549809,21.1857753 C30.549809,14.4948764 35.9932921,9.05139326 42.6834045,9.05139326 C49.3735169,9.05139326 54.817,14.4948764 54.817,21.1857753 C54.817,24.0133034 53.8661011,26.6670112 52.0673371,28.8590337 L51.8966629,29.0666742 L63.448236,41.9034157 L62.2314944,42.9990337 Z" id="Fill-1" fill="#A71E5D"></path>
                        <path d="M55.8936629,40.7330787 L54.2561348,40.7330787" id="Fill-3" fill="#A71E5D"></path>
                        <path d="M51.367809,40.7330787 L49.7302809,40.7330787" id="Fill-5" fill="#A71E5D"></path>
                        <path d="M46.8419551,40.7330787 L45.204427,40.7330787" id="Fill-7" fill="#A71E5D"></path>
                        <mask id="mask-2" fill="white">
                            <use xlink:href="#path-1"></use>
                        </mask>
                        <g id="Clip-10"></g>
                        <polygon id="Fill-9" fill="#A71E5D" mask="url(#mask-2)" points="0 37.0259101 1.63831461 37.0259101 1.63831461 22.9622022 0 22.9622022"></polygon>
                        <polygon id="Fill-11" fill="#A71E5D" mask="url(#mask-2)" points="40.1398876 55.9487191 43.5030337 55.9487191 43.5030337 54.3104045 40.1398876 54.3104045"></polygon>
                        <path d="M31.0564045,4.52624719 L38.4701124,4.52624719 L38.4701124,1.6381573 L31.0564045,1.6381573 L31.0564045,4.52624719 Z M1.63831461,6.16377528 L63.4483146,6.16377528 L63.4483146,4.52624719 L40.1076404,4.52624719 L40.1076404,-0.000157303371 L29.4180899,-0.000157303371 L29.4180899,4.52624719 L0,4.52624719 L0,23.8564719 L1.63831461,23.8564719 L1.63831461,6.16377528 Z" id="Fill-12" fill="#A71E5D" mask="url(#mask-2)"></path>
                        <path d="M60.8414045,67.8882022 L55.7518539,67.8882022 L50.5490449,49.1596629 L55.6370225,49.1596629 L60.8414045,67.8882022 Z M17.9880337,58.8361798 L18.7918539,55.9480899 L32.9294944,55.9480899 L32.9294944,54.3105618 L19.2456742,54.3105618 L20.6763483,49.1596629 L48.849382,49.1596629 L50.2800562,54.3105618 L46.3899438,54.3105618 L46.3899438,55.9480899 L50.7354494,55.9480899 L51.5384831,58.8361798 L17.9880337,58.8361798 Z M13.7738764,67.8882022 L8.68432584,67.8882022 L13.8879213,49.1596629 L18.9758989,49.1596629 L13.7738764,67.8882022 Z M69.5261236,4.52561798 L60.8414045,4.52561798 L60.8414045,6.16393258 L67.887809,6.16393258 L67.887809,47.5213483 L1.63792135,47.5213483 L1.63792135,34.7632584 L-0.000393258427,34.7632584 L-0.000393258427,49.1596629 L12.1874719,49.1596629 L6.53005618,69.5265169 L15.0189326,69.5265169 L17.533427,60.4744944 L51.9915169,60.4744944 L54.5060112,69.5265169 L62.9948876,69.5265169 L57.3374719,49.1596629 L69.5261236,49.1596629 L69.5261236,4.52561798 Z" id="Fill-13" fill="#A71E5D" mask="url(#mask-2)"></path>
                        <path d="M12.1367416,13.3527753 L14.6410112,13.3527753" id="Stroke-14" stroke="#A71E5D" stroke-width="2" mask="url(#mask-2)"></path>
                        <path d="M21.3359213,13.3527753 L23.840191,13.3527753" id="Stroke-15" stroke="#A71E5D" stroke-width="2" mask="url(#mask-2)"></path>
                    </g>
                </g>
            </g>
        </g>
    </g>
</svg>

<svg width="70" height="70" viewBox="0 0 70 70" xmlns="http://www.w3.org/2000/svg" xmlns:xlink="http://www.w3.org/1999/xlink"><title>Page 1</title><defs><path id="a" d="M0 69.526h69.526V0H0z"/></defs><g fill="none" fill-rule="evenodd"><path d="M34.214 27.365l8.5-8.501 8.078 8.975.228-.299a10.375 10.375 0 0 0 2.16-6.354c0-5.787-4.71-10.496-10.497-10.496s-10.496 4.709-10.496 10.496c0 2.086.628 4.114 1.815 5.866l.212.313zM62.231 43l-19.58-21.755-7.588 7.59 8.003 8.537-1.194 1.119-16.148-17.226L6.162 43l-1.216-1.096 20.753-23.06 5.255 5.605-.197-1.051a12.065 12.065 0 0 1-.207-2.211c0-6.691 5.443-12.135 12.133-12.135 6.69 0 12.134 5.444 12.134 12.135 0 2.827-.95 5.481-2.75 7.673l-.17.208 11.551 12.836L62.231 43zM55.894 40.733h-1.638M51.368 40.733H49.73M46.842 40.733h-1.638" fill="#A71E5D"/><mask id="b" fill="#fff"><use xlink:href="#a"/></mask><path fill="#A71E5D" mask="url(#b)" d="M0 37.026h1.638V22.962H0zM40.14 55.949h3.363V54.31H40.14z"/><path d="M31.056 4.526h7.414V1.638h-7.414v2.888zM1.638 6.164h61.81V4.526h-23.34V0h-10.69v4.526H0v19.33h1.638V6.164z" fill="#A71E5D" mask="url(#b)"/><path d="M60.841 67.888h-5.09L50.55 49.16h5.088l5.204 18.728zm-42.853-9.052l.804-2.888h14.137v-1.637H19.246l1.43-5.151H48.85l1.431 5.15h-3.89v1.638h4.345l.803 2.888h-33.55zm-4.214 9.052h-5.09l5.204-18.728h5.088l-5.202 18.728zM69.526 4.526h-8.685v1.638h7.047V47.52H1.638V34.763H0V49.16h12.187L6.53 69.527h8.489l2.514-9.053h34.459l2.514 9.053h8.489L57.337 49.16h12.19V4.526z" fill="#A71E5D" mask="url(#b)"/><path d="M12.137 13.353h2.504M21.336 13.353h2.504" stroke="#A71E5D" stroke-width="2" mask="url(#b)"/></g></svg>
